public/assets/img/card.svg

<svg width="24" height="24" viewBox="0 0 24 24" fill="none" xmlns="http://www.w3.org/2000/svg">
<path fill-rule="evenodd" clip-rule="evenodd" d="M21.2891 17.1094C21.2891 18.8281 20.3672 19.7578 18.625 19.7578H5.375C3.64062 19.7578 2.71094 18.8359 2.71094 17.1094V7.625C2.71094 5.90625 3.64062 4.98438 5.375 4.98438H18.625C20.3672 4.98438 21.2891 5.90625 21.2891 7.625V17.1094ZM4.5 8.92188H19.5V7.82031C19.5 7.10938 19.1328 6.77344 18.4609 6.77344H5.53906C4.85938 6.77344 4.5 7.10938 4.5 7.82031V8.92188ZM18.4609 17.9688H5.53906C4.85938 17.9688 4.5 17.625 4.5 16.9141V10.7969H19.5V16.9141C19.5 17.625 19.1328 17.9688 18.4609 17.9688ZM9.47656 15.6953C9.47656 16.1328 9.16406 16.4453 8.70312 16.4453H6.78906C6.33594 16.4453 6.02344 16.1328 6.02344 15.6953V14.25C6.02344 13.8047 6.33594 13.5 6.78906 13.5H8.70312C9.16406 13.5 9.47656 13.8047 9.47656 14.25V15.6953Z" fill="#E0E0FF" fill-opacity="0.4"/>
</svg>

<svg width="24" height="24" fill="none" xmlns="http://www.w3.org/2000/svg"><path fill-rule="evenodd" clip-rule="evenodd" d="M21.29 17.11c0 1.718-.923 2.648-2.665 2.648H5.375c-1.734 0-2.664-.922-2.664-2.649V7.625c0-1.719.93-2.64 2.664-2.64h13.25c1.742 0 2.664.921 2.664 2.64v9.484ZM4.5 8.921h15V7.82c0-.71-.367-1.047-1.04-1.047H5.54c-.68 0-1.04.336-1.04 1.047v1.102Zm13.96 9.047H5.54c-.68 0-1.04-.344-1.04-1.055v-6.117h15v6.117c0 .711-.367 1.055-1.04 1.055Zm-8.983-2.274c0 .438-.313.75-.774.75H6.79c-.453 0-.766-.312-.766-.75V14.25c0-.445.313-.75.766-.75h1.914c.461 0 .774.305.774.75v1.445Z" fill="#000" fill-opacity=".4"/></svg>
